X: 29573
T: Noon Lassies, The
R: reel
M: 4/4
K: Gmajor
G2 BG AGBG|D2 BG GEDA|G2 BG cBAc|BAGE ED D2:|
dedB AGAB|dedB AG E2|de/f/ gB AGAB|GAGE ED D2:|

